X:221
T:Bouzer Castle. (p)1679.PLFD.221
M:6/4
L:1/4
Q:3/4=80
S:Playford, Dancing Master,6th Ed.,1679
O:England
H:1679.
Z:Chris Partington.
K:C
C|E2G(GE)G|A2BcAc|E2G(GE)C|D3G,3|
E2GGEG|A2B(cA)c|(ec)e(dB)G|c3C2:|
|:C|e2fgfg|B2cdBG|E2GGEG|D3G,3|
E2G(GE)G|A2BcAc|ecedBG|c3C2:|
